X: 335
T: Canjun cui gongrong
%%abc-version 2.0
%%abcx-abcm2ps-target-version 5.9.1 (29 Sep 2008)
%%abc-creator hum2abc beta
%%abcx-conversion-date 2013/10/02 07:52:30
%%abc-edited-by Helmut Schaffrath
%%humdrum-veritas 762875743
%%humdrum-veritas-data 2552039846
%%continueall 1
%%barnumbers 0
L: 1/8
M: 2/4
K: G
A2A B [I:setbarnb 1]| 
A G E G | 
A2B G | 
A4 | 
D2D E | 
A G F E | 
G2A E | 
G4 | 
G A B d | 
A3B | 
D E G F | 
E4 | 
E2E G | 
E D C B, | 
D4 | 
E A F E | 
D D E B, | 
D4 |]  



